packages/dnb-ui-lib/assets/icons/recurring_medium.svg

<svg width="24" height="24" viewBox="0 0 24 24" fill="none" xmlns="http://www.w3.org/2000/svg">
<path d="M7.25 1C7.25 0.585786 6.91421 0.25 6.5 0.25C6.08579 0.25 5.75 0.585786 5.75 1H7.25ZM5.75 6C5.75 6.41421 6.08579 6.75 6.5 6.75C6.91421 6.75 7.25 6.41421 7.25 6H5.75ZM18.25 1C18.25 0.585786 17.9142 0.25 17.5 0.25C17.0858 0.25 16.75 0.585786 16.75 1H18.25ZM16.75 6C16.75 6.41421 17.0858 6.75 17.5 6.75C17.9142 6.75 18.25 6.41421 18.25 6H16.75ZM9 23.25C9.41421 23.25 9.75 22.9142 9.75 22.5C9.75 22.0858 9.41421 21.75 9 21.75V23.25ZM12.3331 16.0241C12.1968 16.4152 12.4033 16.8428 12.7944 16.9792C13.1856 17.1156 13.6132 16.909 13.7495 16.5179L12.3331 16.0241ZM22.9586 16.271L22.2504 16.5179L22.3227 16.7251L22.4952 16.8607L22.9586 16.271ZM23.6668 19.9759C23.8032 19.5848 23.5966 19.1572 23.2055 19.0208C22.8144 18.8844 22.3868 19.091 22.2504 19.4821L23.6668 19.9759ZM13.0413 19.729L13.7495 19.4821L13.6773 19.2749L13.5048 19.1394L13.0413 19.729ZM23.25 16.5V17.25C23.6642 17.25 24 16.9142 24 16.5H23.25ZM24 13.25C24 12.8358 23.6642 12.5 23.25 12.5C22.8358 12.5 22.5 12.8358 22.5 13.25H24ZM20 15.75C19.5858 15.75 19.25 16.0858 19.25 16.5C19.25 16.9142 19.5858 17.25 20 17.25V15.75ZM16 20.25C16.4142 20.25 16.75 19.9142 16.75 19.5C16.75 19.0858 16.4142 18.75 16 18.75V20.25ZM12.75 19.5V18.75C12.3358 18.75 12 19.0858 12 19.5H12.75ZM12 22.75C12 23.1642 12.3358 23.5 12.75 23.5C13.1642 23.5 13.5 23.1642 13.5 22.75H12ZM5.75 1V3.5H7.25V1H5.75ZM5.75 3.5V6H7.25V3.5H5.75ZM16.75 1V3.5H18.25V1H16.75ZM16.75 3.5V6H18.25V3.5H16.75ZM2.5 23.25H9V21.75H2.5V23.25ZM21.5 2.75H17.5V4.25H21.5V2.75ZM17.5 2.75H6.5V4.25H17.5V2.75ZM6.5 2.75H2.5V4.25H6.5V2.75ZM0.75 4.5V9.5H2.25V4.5H0.75ZM0.75 9.5V21.5H2.25V9.5H0.75ZM23.25 8.5V4.5H21.75V8.5H23.25ZM1.5 10.25H21.5V8.75H1.5V10.25ZM21.75 8.5C21.75 8.63807 21.6381 8.75 21.5 8.75V10.25C22.4665 10.25 23.25 9.4665 23.25 8.5H21.75ZM21.5 4.25C21.6381 4.25 21.75 4.36193 21.75 4.5H23.25C23.25 3.5335 22.4665 2.75 21.5 2.75V4.25ZM2.5 21.75C2.36193 21.75 2.25 21.6381 2.25 21.5H0.75C0.75 22.4665 1.5335 23.25 2.5 23.25V21.75ZM2.5 2.75C1.5335 2.75 0.75 3.5335 0.75 4.5H2.25C2.25 4.36193 2.36193 4.25 2.5 4.25V2.75ZM13.7495 16.5179C14.3625 14.7598 16.0351 13.5 18 13.5V12C15.3774 12 13.1497 13.6821 12.3331 16.0241L13.7495 16.5179ZM18 13.5C19.9649 13.5 21.6374 14.7598 22.2504 16.5179L23.6668 16.0241C22.8503 13.6821 20.6225 12 18 12V13.5ZM22.2504 19.4821C21.6374 21.2402 19.9649 22.5 18 22.5V24C20.6225 24 22.8503 22.3179 23.6668 19.9759L22.2504 19.4821ZM18 22.5C16.0351 22.5 14.3625 21.2402 13.7495 19.4821L12.3331 19.9759C13.1497 22.3179 15.3774 24 18 24V22.5ZM24 16.5V13.25H22.5V16.5H24ZM23.25 15.75H20V17.25H23.25V15.75ZM16 18.75H12.75V20.25H16V18.75ZM12 19.5V22.75H13.5V19.5H12ZM22.4952 16.8607L22.7866 17.0897L23.7134 15.9103L23.422 15.6813L22.4952 16.8607ZM13.5048 19.1394L13.2135 18.9104L12.2865 20.0896L12.5779 20.3186L13.5048 19.1394Z" fill="black"/>
</svg>

<svg width="24" height="24" viewBox="0 0 24 24" fill="none" xmlns="http://www.w3.org/2000/svg"><path d="M7.25 1a.75.75 0 00-1.5 0h1.5zm-1.5 5a.75.75 0 001.5 0h-1.5zm12.5-5a.75.75 0 00-1.5 0h1.5zm-1.5 5a.75.75 0 001.5 0h-1.5zM9 23.25a.75.75 0 000-1.5v1.5zm3.333-7.226a.75.75 0 001.416.494l-1.416-.494zm10.626.247l-.709.247.073.207.172.136.464-.59zm.708 3.705a.75.75 0 00-1.417-.494l1.417.494zm-10.626-.247l.708-.247-.072-.207-.172-.136-.464.59zM23.25 16.5v.75a.75.75 0 00.75-.75h-.75zm.75-3.25a.75.75 0 00-1.5 0H24zm-4 2.5a.75.75 0 000 1.5v-1.5zm-4 4.5a.75.75 0 000-1.5v1.5zm-3.25-.75v-.75a.75.75 0 00-.75.75h.75zM12 22.75a.75.75 0 001.5 0H12zM5.75 1v2.5h1.5V1h-1.5zm0 2.5V6h1.5V3.5h-1.5zm11-2.5v2.5h1.5V1h-1.5zm0 2.5V6h1.5V3.5h-1.5zM2.5 23.25H9v-1.5H2.5v1.5zm19-20.5h-4v1.5h4v-1.5zm-4 0h-11v1.5h11v-1.5zm-11 0h-4v1.5h4v-1.5zM.75 4.5v5h1.5v-5H.75zm0 5v12h1.5v-12H.75zm22.5-1v-4h-1.5v4h1.5zM1.5 10.25h20v-1.5h-20v1.5zM21.75 8.5a.25.25 0 01-.25.25v1.5a1.75 1.75 0 001.75-1.75h-1.5zm-.25-4.25a.25.25 0 01.25.25h1.5a1.75 1.75 0 00-1.75-1.75v1.5zm-19 17.5a.25.25 0 01-.25-.25H.75c0 .966.784 1.75 1.75 1.75v-1.5zm0-19A1.75 1.75 0 00.75 4.5h1.5a.25.25 0 01.25-.25v-1.5zm11.25 13.768A4.502 4.502 0 0118 13.5V12a6.002 6.002 0 00-5.667 4.024l1.416.494zM18 13.5a4.502 4.502 0 014.25 3.018l1.417-.494A6.002 6.002 0 0018 12v1.5zm4.25 5.982A4.502 4.502 0 0118 22.5V24a6.002 6.002 0 005.667-4.024l-1.417-.494zM18 22.5a4.502 4.502 0 01-4.25-3.018l-1.417.494A6.002 6.002 0 0018 24v-1.5zm6-6v-3.25h-1.5v3.25H24zm-.75-.75H20v1.5h3.25v-1.5zm-7.25 3h-3.25v1.5H16v-1.5zm-4 .75v3.25h1.5V19.5H12zm10.495-2.64l.292.23.926-1.18-.291-.229-.927 1.18zm-8.99 2.28l-.292-.23-.926 1.18.29.229.928-1.18z" fill="#000"/></svg>
